X:1
T:Roll the Clouds Away
T:Roll the Clouds Away
T:A. J. Fish
T:A. J. Fish, 1870
T:Public Domain Courtesy of the Cyber Hymnal™
T:Public Domain Courtesy of the Cyber Hymnal™
C:A. J. Fish
Z:Public Domain
Z:Courtesy of the Cyber Hymnal™
%%score ( 1 2 ) ( 3 4 )
L:1/8
Q:1/4=95
M:3/4
K:Bb
V:1 treble 
V:2 treble 
V:3 bass 
V:4 bass 
V:1
 [DF]2 | [DF]3 [DF] [EG]>[CA] | [DB]2 [DF]2 [FB]2 | [Fc]3 [Fc] [FB]>[EG] | [DF]4 [DF]2 | %5
w: 1.~The|way is dark be-|fore me, Black|clouds are o’er me|spread; The|
w: 2.~The|drea- ry rain is|fall- ing, The|clouds are fly- ing|past; The|
w: 3.~O|Lord, dis- pel the|dark- ness, And|let me see the|light; Oh,|
 [DF]3 [DF] [EG]>[CA] | [DB]2 [DF]2 [FB]2 | [FA]3 [FA] [EG][EF] | [DB]4 ([DB][Ec]) | %9
w: tem- pest ga- thers|round me, And|forms a- bove my|head. The *|
w: an- gry light- ning|flash- es, The|thun- der’s roll- ing|fast; I’m *|
w: break a- way the|tem- pest, And|let the sun- shine|bright; Oh, *|
 [Fd]3 [Fd] [Ge]>[Fd] | [Fd]2 [FB]2 [FB]2 | [Fc]3 [Ec] [Ed]>[Ec] | [DB]4 (BA) | G3 [GA] [GB]>[Gc] | %14
w: sun hath ceased its|shin- ing, And|wea- ry grows the|day; Oh, *|hear my prayer, my|
w: wait- ing still, my|Fa- ther, And|long- ing for the|day, When *|Thou shalt calm the|
w: speak the rain from|fall- ing, Oh,|clear my soul’s sad|day; Oh, *|stop the thun- der’s|
 [Fd]2 [FB]2 [EG]2 | [DF]3 F [EG]>[EA] | [DB]4 ||"^Refrain" F2 | [DB]3 [Fd] [Ec]>[CA] | B4 [Fc]2 | %20
w: Fa- ther, And|roll the clouds a-|way.||||
w: tem- pest, And|roll the clouds a-|way.|Oh,|roll the clouds a-|way, Oh,|
w: roll- ing, Oh,|roll the clouds a-|way.||||
 [Fd]3 [Ec] [DB]>[Fd] | [Ac]4 [Gc]2 | [Af]3 [Ae] [Bd]>[Fc] | ([GB]>[FA] !fermata![EG]2) [EG]2 | %24
w: ||||
w: roll the clouds a-|way, Oh,|roll the clouds a-|way, * * And|
w: ||||
 (F2 [DB]2) [Fd]2 | [Ec]3 [DB] [Fd]>[Ec] | [DB]4 |] %27
w: |||
w: send * a|bright- er, bet- ter|day.|
w: |||
V:2
 x2 | x6 | x6 | x6 | x6 | x6 | x6 | x6 | x6 | x6 | x6 | x6 | x4 F2 | G3 x3 | x6 | x3 F x2 | x4 || %17
 F2 | x6 | (D2 F2) x2 | x6 | x6 | x6 | x6 | F2 x4 | x6 | x4 |] %27
V:3
 [B,,B,]2 | [B,,B,]3 [B,,B,] [B,,B,]>[B,,B,] | [B,,B,]2 [B,,B,]2 [D,B,]2 | %3
w: ~|~ ~ ~ ~|~ ~ ~|
 [F,A,]3 [F,B,] [F,E]>[F,B,] | [B,,B,]4 [B,,B,]2 | [B,,B,]3 [B,,B,] [B,,B,]>[B,,B,] | %6
w: ~ ~ ~ ~|~ ~|~ ~ ~ ~|
 [B,,B,]2 [B,,B,]2 [D,B,]2 | [F,C]3 [F,C] [F,B,][F,A,] | [B,,B,]4 [B,,B,]2 | %9
w: ~ ~ ~|~ ~ ~ ~|~ ~|
 [B,,B,]3 [B,,B,] [B,,B,]>[B,,B,] | [B,,B,]2 [B,,D]2 [D,B,]2 | [F,A,]3 [F,A,] [F,B,]>[F,A,] | %12
w: ~ ~ ~ ~|~ ~ ~|~ ~ ~ ~|
 [G,B,]4 [D,B,]2 | [E,B,]3 [E,C] [E,D]>[E,C] | [B,,B,]2 [D,B,]2 [E,B,]2 | %15
w: ~ ~|~ ~ ~ ~|~ ~ ~|
 [F,B,]3 [F,D] [F,C]>[F,C] | [B,,B,]4 || z2 | z4 F,2 | [B,,B,]3 [D,B,] [F,A,]>[F,A,] | %20
w: ~ ~ ~ ~|~||Oh,|roll the clouds a-|
 B,4 [B,,F,]2 | [C,F,]3 [D,A,] [E,C]>[=E,C] | [F,C]4 [D,B,]2 | !fermata![E,B,]4 [E,B,]2 | %24
w: way, Oh,|roll the clouds a-|way *||
 [D,B,]2 [B,,F,]2 B,2 | [F,A,]3 [F,B,] [F,A,]>[F,A,] | [B,,B,]4 |] %27
w: |||
V:4
 x2 | x6 | x6 | x6 | x6 | x6 | x6 | x6 | x6 | x6 | x6 | x6 | x6 | x6 | x6 | x6 | x4 || x2 | %18
 x4 F,2 | x6 | B,4 x2 | x6 | x6 | x6 | x4 B,2 | x6 | x4 |] %27

